X:117
T:Jacks Ramble THO4.117
M:6/8
L:1/8
Z:vmp. Peter Dunk 2010/11.from a transcription by Fynn Titford-Mock 2007
B:Thompson's Compleat Collection of 200 Favourite Country Dances Volume IV.
Q:3/8=110
K:D
D|FDF AFA|d2 d d2 D|FDF AGF|E2 E E2 D|\
FDF AFA| d2 d d2 f|agf gfe|d2 d d2:|
|:a|afd gec|def gfe|fag fed|e2 e e2 a|\
bfg agf|(e/f/g)e cBA|Bgf edc|d2 d d2:|

